X:3445
T:Coronation,The. HSJJ.093
M:6/8
L:1/8
S:HSJ Jackson,Wyresdale,Lancs.1823
R:Jig
O:England
A:Lancashire
H:1823
Z:vmp.Chris Partington.
K:D
A2d c-Bc|d2fA2d|B2eg2f|e-f.d c-d.B|A2d {d}cBc|!d2fa2f|b2ga2f|gfe d2z:|
|f-efd2f|g2be2g|!f2ad2f|e2d cBA|{g}fef df2|g2be2g|f2dg2f|e2d "DC"cBA|]


